X:129
T:Poet's Grave, The
T:Uaigh a'Bhaird
R:Slow Air
S:Simon Fraser Collection
N:No.101
O:Scottish
M:3/4
L:1/8
Q:1/4=120
K:A
E6|A6|F3 EFG|A4 FE|E6|A4e2|B3 (ABc)|A6||e4d2|c4B2|A3 Bc^d|
E4 FE|E6|c4e2|B3 ABc|A6||

